X:1
T:Title
%%score 1 { 2 | 3 }
L:1/8
Q:1/4=107
M:4/4
K:Eb
V:1 treble nm="Grand Piano, Soprano"
V:2 bass nm="Choir Pad, In That City, Charles J. Butler"
V:3 bass 
V:1
 E3 [DF] [EG] [GB]2 [GB] | [Ac]3 [GB] [EG] [GB]3 | E2 [EF]2 [DB]3 [EG] | [DF]2 [DF]2 E4 | %4
w: By~Charles~J.~Butler * * * *||||
 E3 [DF] [EG] [GB]2 [GB] | [Ac]3 [GB] [EG] [GB]3 | [Ac]2 [GB]2 [EG]3 [EG] | [DF]2 [DG]2 E4 | %8
w: ||||
 [GB]3 [GB] [Ac] [Ae]3 | [ce]4 [Ac] [GB]3 | [GB]3 [GB] [Ac] [Ae]3 | [Ac][GB] [EG]2 [DF]4 | %12
w: ||||
 E3 [DF] [EG] [GB]3 | [Ac]3 [GB] [EG] [GB]3 | E2 [DF]2 [EG] [GB]2 [EG] | [DF]2 [DG]2 E4- | E4 z4 |] %17
w: |||||
V:2
 G,3 B, B, E2 E | E3 E B, E3 | G,2[K:bass] =A,2 B,3 B, | A,2 A,2 G,4 | G,3 B, B,[K:treble] E2 E | %5
 E3 E B, E3 | E2 E2[K:bass] B,3 B, | B,2 A,2 G,4 | E3 E E C3 | E4 E E3 | E3 E E C3 | %11
 E2[K:bass] B,2 B,4 | G,3 B, B,[K:treble] E3 | E3 E B, E3 | B,2 B,2 B, B,2 B, | B,2 A,2 G,4- | %16
 G,4 z4 |] %17
V:3
 E,3 B,, E, E,2 E, | E,3 E, E, E,3 | E,2 C,2 B,,3 B,, | B,,2 B,,2 E,4 | E,3 B,, E, E,2 E, | %5
 E,3 E, E, E,3 | E,2 E,2 E,3 G,, | B,,2 B,,2 E,4 | E,3 E, A, A,3 | A,4 E, E,3 | E,3 E, A, A,3 | %11
 E,2 E,2 B,,4 | E,3 B,, E, E,3 | E,3 E, E, E,3 | G,2 F,2 E, E,2 G,, | B,,2 B,,2 E,4- | E,4 z4 |] %17

